X:1
T:O'er Bogie
M:4/4
L:1/8
R:Reel
C:Traditional; as played by Angus and Kenneth MacKenzie
K:G
Z:Transcribed 3/6/15 by Stephen Beitzel
[|: c3 A {g}cA{g}GA | {g}cd{g}cA {g}G4 | {g}Ad{g}dc {g}dega | ge{g}dc{g}A{g}A{g}GA :|]
[|: c2 ge gcgc- | cd{g}cA {g}G4 | {g}Ad{g}dc {g}dega | ge{g}dc {g}A{g}A{g}GA :|]
